X: 20231
Q: "Slow"
M: C
L: 1/8
K: D
d2 d>d {d}c2 d>e | fB e>d c>ABc |\
d2 d>d {d}c2 d>e | f>g Te>d d3 :|\
|: d' |\
.c'.b.a.g .f.e.d.d' | .c'.b.a.g .f.e.d.d' |\
.c'.b.a.g .f.f.g.a |
bBe>d cABc |\
d2 d>d {d}c2 d>e | fB e>d c>ABc |\
d2 d>d {d}c2 d>e | f>g e>d d3 :|\
|: a |\
d'2 d'>d' {d'}c'2 d'>c' | bagf efg^g |
a2 a>a {a}^g2 a>b | c'>d'bT^g  a3 f |\
g2 g>g {g}f2 g>a | bB e>d cABc |\
d2 d>d {d}c2 d (b/g/) | f2 Te2 {de}d3 a |\
d'2 d'>d' {d'}c'2 d'>c' |
.b.a.g.f efg^g |\
a2 a>a {a}^g2 a>b | c'>d'bT^g a3 f |\
g2 g>g {g}f2 g>a | bB e>d cABc |\
d2 d>d {d}c2 d (b/g/) | f2 Te2 {de}d3 |]


